!!!OTL: Gechang hezuohua
!!!ARE: Asia, China, Shanxi Zuoquan
!! I, 279
!!!SCT: C2090
!!!YEM: Copyright 1995, estate of Helmut Schaffrath.
**kern
*ICvox
*Ivox
*M2/4
*k[f#]
*G:
{8.dd
16ee
8dd
8g
=1
4.a
8b
=2
8.g
16f#
8e
8g
=3
2a}
=4
{8.ee
16gg
8ee
8dd
=5
4cc
8b
8a
=6
8dd
4g
8a
=7
4.g
8r}
=8
{4g
8g
8a
=9
4dd
8dd
8a
=10
4g
8a
8g
=11
4f#
8e
8d}
=12
{8.a
16b
8a
16a
16g
=13
4a
8c
8B
=14
4.d
8e
=15
2d}
==
!!!AGN: Xiaodiao, Shibazhou
!! Han
!!!ONB: ESAC (Essen Associative Code) Database: SENGANSU
!!!AMT: simple duple
!!!AIN: vox
!!!EED: Helmut Schaffrath
!!!EEV: 1.0
*-
